media/icon/cube.svg

<svg width="116" height="116" viewBox="0 0 116 116" fill="none" xmlns="http://www.w3.org/2000/svg">
<rect x="2" y="2" width="112" height="112" stroke="black" stroke-width="4"/>
<path d="M56.7311 39.2372C57.1111 41.6825 56.5851 44.1924 55.2685 46.2149C53.952 48.2374 51.9528 49.6068 49.7105 50.0221L23.5325 54.8721C22.4219 55.078 21.2849 55.0433 20.1866 54.7699C19.0882 54.4966 18.05 53.99 17.1313 53.279C16.2125 52.568 15.4311 51.6667 14.8319 50.6264C14.2326 49.5861 13.8271 48.4272 13.6385 47.216L9.36703 19.7719C8.98561 17.3265 9.51051 14.816 10.8263 12.7926C12.1421 10.7692 14.1409 9.3986 16.3833 8.98226L42.5656 4.13231C43.6762 3.9264 44.8132 3.96111 45.9115 4.23445C47.0099 4.50778 48.0481 5.0144 48.9668 5.72536C49.8856 6.43632 50.6669 7.33769 51.2662 8.378C51.8655 9.41831 52.271 10.5772 52.4595 11.7884L56.7311 39.2372ZM88.8918 103.194C87.8009 105.371 85.9618 106.986 83.779 107.684C81.5962 108.382 79.2485 108.106 77.2523 106.917L53.9477 93.0403C52.959 92.4516 52.0862 91.6564 51.3793 90.6999C50.6725 89.7434 50.1453 88.6445 49.8279 87.4658C49.5105 86.2871 49.4091 85.0518 49.5295 83.8303C49.6499 82.6089 49.9897 81.4253 50.5296 80.3472L62.7652 55.9103C63.8561 53.7335 65.6951 52.1184 67.8779 51.4202C70.0607 50.7221 72.4084 50.9981 74.4046 52.1875L97.7092 66.0686C98.698 66.6572 99.5707 67.4525 100.278 68.4089C100.985 69.3654 101.512 70.4644 101.829 71.6431C102.147 72.8217 102.248 74.0571 102.127 75.2785C102.007 76.4999 101.667 77.6835 101.127 78.7617L88.8918 103.194Z" stroke="white" stroke-width="4" stroke-linecap="round" stroke-linejoin="round"/>
<path d="M33.0447 31.6278C32.5272 31.6278 32.0309 31.4036 31.6649 31.0045C31.299 30.6055 31.0934 30.0642 31.0934 29.4998C31.0934 28.9354 31.299 28.3942 31.6649 27.9951C32.0309 27.596 32.5272 27.3718 33.0447 27.3718M33.0447 31.6278C33.5623 31.6278 34.0586 31.4036 34.4245 31.0045C34.7905 30.6055 34.9961 30.0642 34.9961 29.4998C34.9961 28.9354 34.7905 28.3942 34.4245 27.9951C34.0586 27.596 33.5623 27.3718 33.0447 27.3718M72.7192 71.7837C72.2016 71.7837 71.7053 71.5595 71.3394 71.1604C70.9734 70.7614 70.7678 70.2201 70.7678 69.6557C70.7678 69.0913 70.9734 68.5501 71.3394 68.151C71.7053 67.7519 72.2016 67.5277 72.7192 67.5277M72.7192 71.7837C73.2367 71.7837 73.733 71.5595 74.099 71.1604C74.4649 70.7614 74.6705 70.2201 74.6705 69.6557C74.6705 69.0913 74.4649 68.5501 74.099 68.151C73.733 67.7519 73.2367 67.5277 72.7192 67.5277M78.749 90.6503C78.2315 90.6503 77.7352 90.4261 77.3692 90.0271C77.0033 89.628 76.7977 89.0867 76.7977 88.5224C76.7977 87.958 77.0033 87.4167 77.3692 87.0176C77.7352 86.6186 78.2315 86.3944 78.749 86.3944M78.749 90.6503C79.2666 90.6503 79.7629 90.4261 80.1288 90.0271C80.4948 89.628 80.7004 89.0867 80.7004 88.5224C80.7004 87.958 80.4948 87.4167 80.1288 87.0176C79.7629 86.6186 79.2666 86.3944 78.749 86.3944" stroke="white" stroke-width="4" stroke-linecap="round" stroke-linejoin="round"/>
</svg>

<svg xmlns="http://www.w3.org/2000/svg" width="116" height="116" fill="none"><path stroke="#000" stroke-width="4" d="M2 2h112v112H2z"/><path stroke="#fff" stroke-linecap="round" stroke-linejoin="round" stroke-width="4" d="M56.731 39.237c.38 2.445-.146 4.955-1.462 6.978s-3.316 3.392-5.558 3.807l-26.178 4.85a7.9 7.9 0 0 1-3.346-.102 8.25 8.25 0 0 1-3.056-1.491 9.1 9.1 0 0 1-2.3-2.653 9.9 9.9 0 0 1-1.192-3.41L9.367 19.772c-.381-2.445.144-4.956 1.46-6.98 1.315-2.023 3.314-3.393 5.556-3.81l26.183-4.85a7.9 7.9 0 0 1 3.345.102 8.25 8.25 0 0 1 3.056 1.491 9.1 9.1 0 0 1 2.3 2.653 9.9 9.9 0 0 1 1.192 3.41zm32.16 63.957c-1.09 2.177-2.93 3.792-5.112 4.49s-4.53.422-6.527-.767L53.948 93.04a8.8 8.8 0 0 1-2.569-2.34 9.7 9.7 0 0 1-1.551-3.234 10.2 10.2 0 0 1-.299-3.636 10 10 0 0 1 1-3.483L62.766 55.91c1.091-2.176 2.93-3.792 5.113-4.49s4.53-.422 6.527.767L97.709 66.07a8.8 8.8 0 0 1 2.569 2.34 9.7 9.7 0 0 1 1.551 3.234c.318 1.179.419 2.414.298 3.635a10 10 0 0 1-1 3.484z"/><path stroke="#fff" stroke-linecap="round" stroke-linejoin="round" stroke-width="4" d="M33.045 31.628a1.87 1.87 0 0 1-1.38-.623 2.23 2.23 0 0 1-.572-1.505c0-.565.206-1.106.572-1.505s.862-.623 1.38-.623m0 4.256c.517 0 1.014-.224 1.38-.623a2.23 2.23 0 0 0 .571-1.505 2.23 2.23 0 0 0-.572-1.505 1.87 1.87 0 0 0-1.38-.623M72.72 71.784a1.87 1.87 0 0 1-1.38-.624 2.23 2.23 0 0 1-.571-1.504c0-.565.205-1.106.571-1.505.366-.4.863-.623 1.38-.623m0 4.256c.518 0 1.014-.225 1.38-.624a2.23 2.23 0 0 0 .572-1.504 2.23 2.23 0 0 0-.572-1.505 1.87 1.87 0 0 0-1.38-.623m6.03 23.122a1.87 1.87 0 0 1-1.38-.623 2.23 2.23 0 0 1-.571-1.505c0-.564.205-1.105.571-1.504a1.87 1.87 0 0 1 1.38-.624m0 4.256c.518 0 1.014-.224 1.38-.623s.571-.94.571-1.505a2.23 2.23 0 0 0-.571-1.504 1.87 1.87 0 0 0-1.38-.624"/></svg>
